outputs/icons/toggle/star_round.svg

<svg xmlns="http://www.w3.org/2000/svg" width="1200" height="1200" fill="none"><g clip-path="url(#a)"><path fill="#000" d="M600 863.5 807.5 989c38 23 84.5-11 74.495-54L827 699l183.495-159c33.5-29 15.5-83.999-28.5-87.5L740.5 432 646 209.001c-17-40.5-75-40.5-92 0l-94.502 222.5-241.5 20.5c-44 3.5-62 58.499-28.5 87.499l183.5 159-55 236c-10 43 36.5 77 74.5 54z"/></g><defs><clipPath id="a"><path fill="#fff" d="M0 0h1200v1200H0z"/></clipPath></defs></svg>

<svg width="1200" height="1200" viewBox="0 0 1200 1200" fill="none" xmlns="http://www.w3.org/2000/svg"><g clip-path="url(#clip0_238_2770)"><path d="M600 863.5L807.5 989C845.5 1012 892 978 881.995 935L827 699L1010.495 540C1043.995 511 1025.995 456.001 981.995 452.5L740.5 432L646 209.001C629 168.501 571 168.501 554 209.001L459.498 431.501L217.998 452.001C173.998 455.501 155.998 510.5 189.498 539.5L372.998 698.5L317.998 934.5C307.998 977.5 354.498 1011.5 392.498 988.5L600 863.5Z" fill="black"/></g><defs><clipPath id="clip0_238_2770"><path width="24" fill="white" d="M0 0H1200V1200H0V0z"/></clipPath></defs></svg>
